svgs/solid/hundred-points.svg

<svg xmlns="http://www.w3.org/2000/svg" viewBox="0 0 512 512"><!--! Font Awesome Pro 6.1.1 by @fontawesome - https://fontawesome.com License - https://fontawesome.com/license (Commercial License) Copyright 2022 Fonticons, Inc. --><path d="M163 101.8C168 61.9 201.9 32 242 32C289.9 32 326.1 73.98 321.1 121.5L308.1 218.2C303.1 258.1 270.1 288 229.1 288C182.1 288 144.1 246 150.9 198.5L163 101.8zM242 96C234.2 96 227.5 101.9 226.5 109.7L214.4 206.4C213.3 215.8 220.5 224 229.1 224C237.8 224 244.5 218.1 245.5 210.3L257.6 113.6C258.7 104.2 251.4 96 242 96H242zM103.7 292C101.2 309.5 84.96 321.1 67.46 319.7C49.96 317.5 37.81 301.5 40.32 283.1L64.25 116.5L44.59 125.2C28.34 132.4 9.53 125.2 2.575 109.1C-4.381 92.95 3.154 74.02 19.4 66.8L91.4 34.8C102 30.07 114.3 31.41 123.5 38.29C132.7 45.18 137.3 56.54 135.7 68.01L103.7 292zM511.7 315.5C514.2 332.1 502 349.2 484.5 351.7L36.52 415.7C19.03 418.2 2.818 406 .3184 388.5C-2.181 371 9.976 354.8 27.47 352.3L475.5 288.3C492.1 285.8 509.2 297.1 511.7 315.5zM511.7 411.5C514.2 428.1 502 445.2 484.5 447.7L260.5 479.7C243 482.2 226.8 470 224.3 452.5C221.8 435 233.1 418.8 251.5 416.3L475.5 384.3C492.1 381.8 509.2 393.1 511.7 411.5zM507.1 119L499.8 199.4C496.1 240.5 461.6 272 420.3 272C373.4 272 336.6 231.7 340.9 184.1L348.2 104.6C351.9 63.47 386.4 32 427.7 32C474.6 32 511.4 72.29 507.1 119zM404.6 190.8C403.8 200 411 208 420.3 208C428.5 208 435.3 201.8 436.1 193.6L443.4 113.2C444.2 103.1 436.9 96 427.7 96C419.5 96 412.7 102.2 411.9 110.4L404.6 190.8z"/></svg>

<svg xmlns="http://www.w3.org/2000/svg" viewBox="0 0 512 512"><!--! Font Awesome Pro 6.4.2 by @fontawesome - https://fontawesome.com License - https://fontawesome.com/license (Commercial License) Copyright 2023 Fonticons, Inc. --><path d="M163 101.8C168 61.9 201.9 32 242 32c47.9 0 85 42 79 89.5L309 218.2c-5 39.8-38.9 69.8-79 69.8c-47.9 0-85-42-79-89.5L163 101.8zM242 96c-7.9 0-14.5 5.9-15.5 13.7l-12.1 96.7c-1.2 9.3 6.1 17.6 15.5 17.6c7.9 0 14.5-5.9 15.5-13.7l12.1-96.7c1.2-9.3-6.1-17.6-15.5-17.6zM135.7 68l-32 224c-2.5 17.5-18.7 30-36.2 27.7S37.8 301.5 40.3 284L64.3 116.5l-19.7 8.7c-16.2 7.2-35.1 0-42-16.1s.6-35.1 16.8-42.3l72-32c10.6-4.7 22.9-3.4 32.1 3.5s13.8 18.2 12.2 29.7zm376 247.5c2.5 17.5-9.7 33.7-27.2 36.2l-448 64C19 418.2 2.8 406 .3 388.5S10 354.8 27.5 352.3l448-64c17.5-2.5 33.7 9.7 36.2 27.2zm0 96c2.5 17.5-9.7 33.7-27.2 36.2l-224 32c-17.5 2.5-33.7-9.7-36.2-27.2s9.7-33.7 27.2-36.2l224-32c17.5-2.5 33.7 9.7 36.2 27.2zM427.7 32c46.9 0 83.7 40.3 79.5 87l-7.3 80.4c-3.7 41.1-38.2 72.6-79.5 72.6c-46.9 0-83.7-40.3-79.5-87l7.3-80.4C351.9 63.5 386.4 32 427.7 32zm-15.7 78.4l-7.3 80.4c-.8 9.3 6.4 17.2 15.7 17.2c8.2 0 15-6.2 15.7-14.4l7.3-80.4c.8-9.3-6.4-17.2-15.7-17.2c-8.2 0-15 6.2-15.7 14.4z"/></svg>
